tour/imgs/Welcome.svg

<?xml version="1.0" encoding="UTF-8"?>
<svg width="597px" height="568px" viewBox="0 0 597 568" version="1.1" xmlns="http://www.w3.org/2000/svg" xmlns:xlink="http://www.w3.org/1999/xlink">
    <!-- Generator: Sketch 47 (45396) - http://www.bohemiancoding.com/sketch -->
    <title>Welcome</title>
    <desc>Created with Sketch.</desc>
    <defs>
        <linearGradient x1="50%" y1="100%" x2="50%" y2="11.7406683%" id="linearGradient-1">
            <stop stop-color="#2B5876" offset="0%"></stop>
            <stop stop-color="#4E4376" stop-opacity="0.962720788" offset="100%"></stop>
        </linearGradient>
        <path d="M297.306139,473.559711 C299.61535,453.135188 308.048975,351.040149 312.514772,336.60319 C320.209612,311.727433 331.105839,295.740028 345.203452,288.640977 C388.271585,269.122169 393.103853,285.872039 459.85946,246.834423 C488.93045,226.231237 492.16056,201.290538 494.313966,156.831031 C496.467373,128.637198 519.078143,71.1651522 550.30254,71.1651522 C559.043535,71.1651522 566.45309,71.1651522 577.220123,76.5870433 C593.370673,87.4308255 586.910453,67.9120176 580.450233,61.4057482 C557.839463,40.8025621 541.688913,35.380671 514.77133,33.2119146 C465.242976,28.8744017 426.481656,51.6463443 402.794183,46.2244532 C379.10671,40.8025621 396.333963,3.00766469 376.953303,0.83890826 C357.572643,-1.32984817 362.871319,30.6371244 345.728906,38.6338057 C337.872816,42.2985554 319.888026,46.2244532 294.047146,46.2244532 C268.206266,46.2244532 250.221477,42.2985554 242.365386,38.6338057 C225.222973,30.6371244 230.52165,-1.32984817 211.14099,0.83890826 C191.76033,3.00766469 208.987583,40.8025621 185.30011,46.2244532 C161.612636,51.6463443 122.851316,28.8744017 73.3229629,33.2119146 C46.4053796,35.380671 30.2548295,40.8025621 7.64405954,61.4057482 C1.18383953,67.9120176 -5.27638047,87.4308255 10.8741695,76.5870433 C21.6412029,71.1651522 29.0507575,71.1651522 37.7917529,71.1651522 C69.0161496,71.1651522 91.6269196,128.637198 93.7803263,156.831031 C95.9337329,201.290538 99.1638429,226.231237 128.234833,246.834423 C194.99044,285.872039 200.848184,269.122169 243.916317,288.640977 C258.335351,295.901884 269.405353,312.461068 277.126323,338.318527 C281.351964,352.470158 288.218993,454.071206 290.438358,473.793076 C290.600094,479.460895 297.11808,479.460895 297.306139,473.559711 Z" id="path-2"></path>
        <filter x="-2.6%" y="-3.1%" width="105.1%" height="106.3%" filterUnits="objectBoundingBox" id="filter-4">
            <feOffset dx="0" dy="0" in="SourceAlpha" result="shadowOffsetOuter1"></feOffset>
            <feGaussianBlur stdDeviation="5" in="shadowOffsetOuter1" result="shadowBlurOuter1"></feGaussianBlur>
            <feColorMatrix values="0 0 0 0 0   0 0 0 0 0   0 0 0 0 0  0 0 0 0.1 0" type="matrix" in="shadowBlurOuter1"></feColorMatrix>
        </filter>
        <linearGradient x1="50%" y1="30.2951389%" x2="50%" y2="135.469934%" id="linearGradient-5">
            <stop stop-color="#7081AC" offset="0%"></stop>
            <stop stop-color="#3D4A74" offset="100%"></stop>
        </linearGradient>
        <path d="M59.9901054,12.1940701 C94.1653775,12.1940701 113.752452,9.22542193 118.75133,3.28812563 L118.751328,3.28812395 C119.46274,2.4431608 119.354476,1.18146897 118.509513,0.470056386 C118.148943,0.166476181 117.692738,1.19863827e-07 117.221387,1.19367419e-07 L2.7587913,-1.17946304e-09 L2.7587913,2.47656393e-05 C1.65423548,2.47644761e-05 0.758816064,0.895444175 0.758816063,2 C0.758816062,2.47134344 0.925288666,2.92754174 1.22886284,3.28810708 C6.22771704,9.22541574 25.8147979,12.1940701 59.9901054,12.1940701 Z" id="path-6"></path>
        <filter x="-1.7%" y="-16.4%" width="103.4%" height="132.8%" filterUnits="objectBoundingBox" id="filter-7">
            <feGaussianBlur stdDeviation="2" in="SourceAlpha" result="shadowBlurInner1"></feGaussianBlur>
            <feOffset dx="0" dy="0" in="shadowBlurInner1" result="shadowOffsetInner1"></feOffset>
            <feComposite in="shadowOffsetInner1" in2="SourceAlpha" operator="arithmetic" k2="-1" k3="1" result="shadowInnerInner1"></feComposite>
            <feColorMatrix values="0 0 0 0 0   0 0 0 0 0   0 0 0 0 0  0 0 0 0.4 0" type="matrix" in="shadowInnerInner1"></feColorMatrix>
        </filter>
        <path d="M59.0261898,34.0808779 C87.9514801,34.0808779 104.336339,31.0389763 108.180766,24.9551731 L108.180746,24.9551608 C108.770794,24.0214107 108.492168,22.7861284 107.558418,22.1960807 C107.238698,21.9940463 106.868246,21.886808 106.490042,21.886808 L11.5623322,21.8868079 L11.5623322,21.886823 C10.457771,21.886823 9.56234725,22.7822467 9.56234725,23.8868079 C9.56234724,24.2650165 9.66958764,24.6354731 9.87162583,24.9551953 C13.7160801,31.0389837 30.1009348,34.0808779 59.0261898,34.0808779 Z" id="path-8"></path>
        <filter x="-2.0%" y="-16.4%" width="104.0%" height="132.8%" filterUnits="objectBoundingBox" id="filter-9">
            <feGaussianBlur stdDeviation="2" in="SourceAlpha" result="shadowBlurInner1"></feGaussianBlur>
            <feOffset dx="0" dy="0" in="shadowBlurInner1" result="shadowOffsetInner1"></feOffset>
            <feComposite in="shadowOffsetInner1" in2="SourceAlpha" operator="arithmetic" k2="-1" k3="1" result="shadowInnerInner1"></feComposite>
            <feColorMatrix values="0 0 0 0 0   0 0 0 0 0   0 0 0 0 0  0 0 0 0.4 0" type="matrix" in="shadowInnerInner1"></feColorMatrix>
        </filter>
        <path d="M58.9105448,57.0619946 C81.8836869,57.0619946 94.970489,53.9704224 98.1709512,47.787278 L98.1709422,47.7872734 C98.6786901,46.8063281 98.2950877,45.5995039 97.3141425,45.091756 C97.0300045,44.9446832 96.7147287,44.8679246 96.3947837,44.8679246 L21.4263113,44.8679245 L21.4263113,44.8679228 C20.3217408,44.8679228 19.4263095,45.763354 19.4263095,46.8679245 C19.4263095,47.1878732 19.5030694,47.5031526 19.6501447,47.7872934 C22.8506218,53.9704275 35.9374219,57.0619946 58.9105448,57.0619946 Z" id="path-10"></path>
        <filter x="-2.5%" y="-16.4%" width="105.1%" height="132.8%" filterUnits="objectBoundingBox" id="filter-11">
            <feGaussianBlur stdDeviation="2" in="SourceAlpha" result="shadowBlurInner1"></feGaussianBlur>
            <feOffset dx="0" dy="0" in="shadowBlurInner1" result="shadowOffsetInner1"></feOffset>
            <feComposite in="shadowOffsetInner1" in2="SourceAlpha" operator="arithmetic" k2="-1" k3="1" result="shadowInnerInner1"></feComposite>
            <feColorMatrix values="0 0 0 0 0   0 0 0 0 0   0 0 0 0 0  0 0 0 0.4 0" type="matrix" in="shadowInnerInner1"></feColorMatrix>
        </filter>
    </defs>
    <g id="Page-1" stroke="none" stroke-width="1" fill="none" fill-rule="evenodd">
        <g id="Welcome" transform="translate(-111.000000, -137.000000)">
            <g id="The-Manta-Copy-4" transform="translate(116.000000, 178.000000)">
                <g id="Body" transform="translate(0.000000, 1.000000)">
                    <mask id="mask-3" fill="white">
                        <use xlink:href="#path-2"></use>
                    </mask>
                    <g>
                        <use fill="black" fill-opacity="1" filter="url(#filter-4)" xlink:href="#path-2"></use>
                        <use fill="url(#linearGradient-1)" fill-rule="evenodd" xlink:href="#path-2"></use>
                    </g>
                    <path d="M292.878309,224.68464 C404.107165,224.68464 506.584383,152.94551 600.309964,9.46724891 L-14.5533454,9.46724891 C77.2078814,152.94551 179.6851,224.68464 292.878309,224.68464 Z" id="Oval-Copy" fill="url(#linearGradient-5)" mask="url(#mask-3)"></path>
                    <path d="M102.314647,-72.9054811 C20.0088529,-67.4216964 -44.0433996,-24.8139718 -44.0433996,26.9344978 C-44.0433996,82.4041452 29.5519198,127.371179 120.336347,127.371179 C188.294378,127.371179 246.620504,102.173932 271.654699,66.2358079 L318.52975,66.2358079 C343.563945,102.173932 401.890071,127.371179 469.848101,127.371179 C560.632529,127.371179 634.227848,82.4041452 634.227848,26.9344978 C634.227848,-24.8139718 570.175596,-67.4216964 487.869801,-72.9054811 L487.869801,-195.772926 L102.314647,-195.772926 L102.314647,-72.9054811 Z" id="Combined-Shape" fill="#CAD2E8" mask="url(#mask-3)"></path>
                </g>
                <g id="Eyes" transform="translate(153.000000, 0.000000)" fill="#5E6D98">
                    <path d="M274.424018,31.869178 C278.798591,28.6718675 281.644739,23.4717235 281.644739,17.6 C281.644739,7.8797884 273.845043,0 264.22363,0 C257.268692,0 251.265651,4.11740251 248.472472,10.0710544 C247.647361,11.8297769 249.286635,13.3970849 250.743931,12.5487477 C252.91708,11.2836898 255.438006,10.56 258.126241,10.56 C266.304442,10.56 272.934184,17.2578201 272.934184,25.52 C272.934184,27.2471928 272.644457,28.9060214 272.111424,30.4495883 C271.656478,31.767029 273.149467,32.8007282 274.424018,31.869178 Z" id="Combined-Shape"></path>
                    <path d="M26.1732132,31.869178 C30.5477859,28.6718675 33.3939337,23.4717235 33.3939337,17.6 C33.3939337,7.8797884 25.5942375,0 15.9728246,0 C9.01788703,0 3.01484566,4.11740251 0.221667453,10.0710544 C-0.603443831,11.8297769 1.03583013,13.3970849 2.49312563,12.5487477 C4.66627466,11.2836898 7.18720115,10.56 9.87543643,10.56 C18.0536374,10.56 24.6833792,17.2578201 24.6833792,25.52 C24.6833792,27.2471928 24.3936522,28.9060214 23.8606189,30.4495883 C23.4056728,31.767029 24.8986625,32.8007282 26.1732132,31.869178 Z" id="Combined-Shape-Copy" transform="translate(16.696967, 16.113528) scale(-1, 1) translate(-16.696967, -16.113528) "></path>
                </g>
                <g id="Mouth" transform="translate(235.000000, 64.000000)">
                    <path d="M60.8074807,33.0000099 C85.305803,33.0000099 105.049315,24.1977004 120.038015,6.59308141 L120.038008,6.5930752 C121.470124,4.91101803 121.267506,2.3864821 119.585449,0.954366389 C118.861895,0.338327635 117.942655,9.89919506e-06 116.992374,9.89919506e-06 L4.62258955,9.89919501e-06 L4.62258955,1.44747512e-05 C2.41345307,1.44747512e-05 0.622594122,1.79087343 0.622594122,4.0000099 C0.622594122,4.95029197 0.960912385,5.86953384 1.57695208,6.59308834 C16.565652,24.1977027 36.3091615,33.0000099 60.8074807,33.0000099 Z" id="Combined-Shape" fill="#474F7A"></path>
                    <path d="M101.668891,22.3548437 C89.9479987,15.2580662 76.3103461,11.7096774 60.7559331,11.7096774 C45.2015202,11.7096774 31.5638675,15.2580662 19.8429752,22.3548437 C31.5638675,29.4516212 45.2015202,33.0000099 60.7559331,33.0000099 C76.3103461,33.0000099 89.9479987,29.4516212 101.668891,22.3548437 Z" id="Combined-Shape" fill="#E67399"></path>
                </g>
                <g id="Cheeks" transform="translate(144.000000, 100.000000)" fill="#CC6688">
                    <ellipse id="Oval-2" cx="280.434783" cy="19.5" rx="19.5652174" ry="19.5"></ellipse>
                    <ellipse id="Oval-2-Copy" cx="19.5652174" cy="19.5" rx="19.5652174" ry="19.5"></ellipse>
                </g>
                <g id="Grills--3" transform="translate(235.000000, 140.000000)">
                    <g id="Combined-Shape">
                        <use fill="#435079" fill-rule="evenodd" xlink:href="#path-6"></use>
                        <use fill="black" fill-opacity="1" filter="url(#filter-7)" xlink:href="#path-6"></use>
                    </g>
                    <g id="Combined-Shape-Copy-4">
                        <use fill="#435079" fill-rule="evenodd" xlink:href="#path-8"></use>
                        <use fill="black" fill-opacity="1" filter="url(#filter-9)" xlink:href="#path-8"></use>
                    </g>
                    <g id="Combined-Shape-Copy-5">
                        <use fill="#435079" fill-rule="evenodd" xlink:href="#path-10"></use>
                        <use fill="black" fill-opacity="1" filter="url(#filter-11)" xlink:href="#path-10"></use>
                    </g>
                </g>
            </g>
        </g>
    </g>
</svg>

<svg xmlns="http://www.w3.org/2000/svg" width="597" height="568" xmlns:xlink="http://www.w3.org/1999/xlink"><defs><linearGradient id="c" x1="50%" x2="50%" y1="100%" y2="11.741%"><stop stop-color="#2B5876" offset="0%"/><stop stop-color="#4E4376" stop-opacity=".963" offset="100%"/></linearGradient><path id="a" d="M297.306 473.56c2.31-20.425 10.743-122.52 15.21-136.957 7.694-24.876 18.59-40.863 32.687-47.962 43.07-19.518 47.9-2.768 114.656-41.806 29.07-20.603 32.3-45.543 34.454-90.003 2.153-28.193 24.764-85.665 55.99-85.665 8.74 0 16.15 0 26.916 5.422 16.15 10.844 9.69-8.675 3.23-15.18-22.61-20.604-38.76-26.026-65.68-28.195-49.527-4.338-88.288 18.434-111.976 13.012-23.687-5.42-6.46-43.216-25.84-45.385-19.38-2.17-14.083 29.797-31.225 37.794-7.857 3.665-25.842 7.59-51.683 7.59-25.84 0-43.826-3.925-51.682-7.59C225.223 30.637 230.522-1.33 211.14.84c-19.38 2.168-2.152 39.963-25.84 45.384-23.687 5.422-62.45-17.35-111.977-13.012-26.918 2.17-43.068 7.59-65.68 28.194-6.46 6.506-12.92 26.025 3.23 15.18 10.768-5.42 18.178-5.42 26.92-5.42 31.223 0 53.834 57.47 55.987 85.665 2.154 44.46 5.384 69.4 34.455 90.004 66.755 39.038 72.613 22.288 115.68 41.807 14.42 7.262 25.49 23.82 33.21 49.68 4.227 14.15 11.094 115.75 13.313 135.473.162 5.668 6.68 5.668 6.868-.233z"/><filter id="b" width="105.1%" height="106.3%" x="-2.6%" y="-3.1%" filterUnits="objectBoundingBox"><feOffset in="SourceAlpha" result="shadowOffsetOuter1"/><feGaussianBlur stdDeviation="5" in="shadowOffsetOuter1" result="shadowBlurOuter1"/><feColorMatrix values="0 0 0 0 0 0 0 0 0 0 0 0 0 0 0 0 0 0 0.1 0" in="shadowBlurOuter1"/></filter><linearGradient id="d" x1="50%" x2="50%" y1="30.295%" y2="135.47%"><stop stop-color="#7081AC" offset="0%"/><stop stop-color="#3D4A74" offset="100%"/></linearGradient><path id="f" d="M59.99 12.194c34.175 0 53.762-2.97 58.76-8.906.713-.845.604-2.107-.24-2.818-.36-.304-.817-.47-1.29-.47H2.76c-1.106 0-2 .895-2 2 0 .47.165.928.47 1.288 4.998 5.937 24.585 8.906 58.76 8.906z"/><filter id="g" width="103.4%" height="132.8%" x="-1.7%" y="-16.4%" filterUnits="objectBoundingBox"><feGaussianBlur stdDeviation="2" in="SourceAlpha" result="shadowBlurInner1"/><feOffset in="shadowBlurInner1" result="shadowOffsetInner1"/><feComposite in="shadowOffsetInner1" in2="SourceAlpha" operator="arithmetic" k2="-1" k3="1" result="shadowInnerInner1"/><feColorMatrix values="0 0 0 0 0 0 0 0 0 0 0 0 0 0 0 0 0 0 0.4 0" in="shadowInnerInner1"/></filter><path id="h" d="M59.026 34.08c28.925 0 45.31-3.04 49.155-9.125.59-.934.312-2.17-.622-2.76-.32-.2-.69-.308-1.068-.308H11.562c-1.104 0-2 .895-2 2 0 .378.108.748.31 1.068 3.844 6.084 20.23 9.126 49.154 9.126z"/><filter id="i" width="104%" height="132.8%" x="-2%" y="-16.4%" filterUnits="objectBoundingBox"><feGaussianBlur stdDeviation="2" in="SourceAlpha" result="shadowBlurInner1"/><feOffset in="shadowBlurInner1" result="shadowOffsetInner1"/><feComposite in="shadowOffsetInner1" in2="SourceAlpha" operator="arithmetic" k2="-1" k3="1" result="shadowInnerInner1"/><feColorMatrix values="0 0 0 0 0 0 0 0 0 0 0 0 0 0 0 0 0 0 0.4 0" in="shadowInnerInner1"/></filter><path id="j" d="M58.91 57.062c22.974 0 36.06-3.092 39.26-9.275.51-.98.125-2.187-.856-2.695-.284-.147-.6-.224-.92-.224H21.427c-1.104 0-2 .895-2 2 0 .32.077.635.224.92 3.2 6.182 16.287 9.274 39.26 9.274z"/><filter id="k" width="105.1%" height="132.8%" x="-2.5%" y="-16.4%" filterUnits="objectBoundingBox"><feGaussianBlur stdDeviation="2" in="SourceAlpha" result="shadowBlurInner1"/><feOffset in="shadowBlurInner1" result="shadowOffsetInner1"/><feComposite in="shadowOffsetInner1" in2="SourceAlpha" operator="arithmetic" k2="-1" k3="1" result="shadowInnerInner1"/><feColorMatrix values="0 0 0 0 0 0 0 0 0 0 0 0 0 0 0 0 0 0 0.4 0" in="shadowInnerInner1"/></filter></defs><g fill="none" fill-rule="evenodd"><g transform="translate(5 42)"><mask id="e" fill="#fff"><use xlink:href="#a"/></mask><use fill="#000" filter="url(#b)" xlink:href="#a"/><use fill="url(#c)" xlink:href="#a"/><path fill="url(#d)" d="M292.878 224.685c111.23 0 213.706-71.74 307.432-215.218H-14.553c91.76 143.48 194.238 215.218 307.43 215.218z" mask="url(#e)"/><path fill="#CAD2E8" d="M102.315-72.905C20.01-67.422-44.043-24.815-44.043 26.935c0 55.47 73.595 100.436 164.38 100.436 67.957 0 126.284-25.196 151.318-61.134h46.875c25.034 35.938 83.36 61.135 151.318 61.135 90.785 0 164.38-44.966 164.38-100.436 0-51.748-64.052-94.356-146.358-99.84v-122.867H102.315v122.868z" mask="url(#e)"/></g><g fill="#5E6D98"><path d="M432.424 72.87c4.375-3.198 7.22-8.398 7.22-14.27 0-9.72-7.8-17.6-17.42-17.6-6.955 0-12.958 4.117-15.752 10.07-.825 1.76.815 3.327 2.272 2.48 2.173-1.266 4.694-1.99 7.382-1.99 8.178 0 14.808 6.698 14.808 14.96 0 1.727-.29 3.386-.823 4.93-.454 1.317 1.04 2.35 2.314 1.42zM165.22 72.87C160.847 69.67 158 64.47 158 58.6c0-9.72 7.8-17.6 17.42-17.6 6.956 0 12.96 4.117 15.752 10.07.825 1.76-.814 3.327-2.27 2.48-2.174-1.266-4.695-1.99-7.384-1.99-8.178 0-14.807 6.698-14.807 14.96 0 1.727.29 3.386.823 4.93.455 1.317-1.038 2.35-2.312 1.42z"/></g><path fill="#474F7A" d="M300.807 138c24.5 0 44.242-8.802 59.23-26.407 1.433-1.682 1.23-4.207-.452-5.64-.723-.615-1.642-.953-2.593-.953h-112.37c-2.21 0-4 1.79-4 4 0 .95.34 1.87.955 2.593C256.567 129.198 276.31 138 300.807 138z"/><path fill="#E67399" d="M341.67 127.355c-11.722-7.097-25.36-10.645-40.914-10.645-15.554 0-29.192 3.548-40.913 10.645 11.72 7.097 25.36 10.645 40.913 10.645 15.554 0 29.192-3.548 40.913-10.645z"/><g fill="#C68" transform="translate(149 141)"><ellipse cx="280.435" cy="19.5" rx="19.565" ry="19.5"/><ellipse cx="19.565" cy="19.5" rx="19.565" ry="19.5"/></g><g><g transform="translate(240 181)"><use fill="#435079" xlink:href="#f"/><use fill="#000" filter="url(#g)" xlink:href="#f"/></g><g transform="translate(240 181)"><use fill="#435079" xlink:href="#h"/><use fill="#000" filter="url(#i)" xlink:href="#h"/></g><g transform="translate(240 181)"><use fill="#435079" xlink:href="#j"/><use fill="#000" filter="url(#k)" xlink:href="#j"/></g></g></g></svg>
